!!!COM: Music21
!!!OTL: Foliada de Sada
!!!OMV: pezas_foliadas_foliada-de-sada-1_foliada-de-sada-partitura.musicxml
**kern
*I"Bagpipes
*I'Bag
*clefG^2
*k[]
*M3/4
=1
!LO:TX:a:t=Presto
*MM200
!LO:TX:a:t=[quarter]=200
4r
4ee
4ff
=||
2gg
4gg
=
2ff
4ee
=
4ee
[2dd
=
4dd]
4ff
4gg
=
2aa
4aa
=
2gg
4ff
=
4ff
[2ee
=
4ee]
4ee
4ff
=
2gg
4gg
=
2ff
4ee
=
4dd
[2aa
!!linebreak:original
=
8aa]
8r
4.bb
8aa
=
4gg
4ee
[4ff
=
4ff]
2gg
=
4ff
[2ee
=
4ee]
4ee
4ff
=||
2gg
4gg
=
2ff
4ee
=
4ee
[2dd
=
4dd]
4ff
4gg
=
2aa
4aa
=
2gg
4ff
=
4ff
[2ee
!!linebreak:original
=
4ee]
4ee
4ff
=
2gg
4gg
=
2ff
4ee
=
4dd
[2aa
!!linebreak:original
=
8aa]
8r
4.bb
8aa
=
4gg
4ee
[4ff
=
4ff]
2gg
=
4ff
[2ee
=
4ee]
2r
=||
4ee
4gg
4ff
=
4ee
4ff
4gg
=
2aa
[4ff
=
4ff]
4gg
4aa
!!linebreak:original
=
2bb
4gg
=
2ccc
4bb
=
2aa
[4gg
=
2.gg]
=||
4ee
4gg
4ff
=
4ee
4ff
4gg
=
2aa
[4ff
=
4ff]
4gg
4aa
!!linebreak:original
=
2bb
4gg
=
2ccc
4bb
=
2aa
[4gg
=
2.gg]
=||
4.aa
8gg
4ff
=
4gg
4aa
4ff
=
4.gg
8ff
[4ee
=
4ee]
4ee
4ff
=
4.gg
8ff
[4gg
=
4gg]
4bb
4aa
=
4.gg
8ff
[4ee
!!linebreak:original
=
2.ee]
=
4ee
4ff
4gg
=
4aa
4bb
4ccc
=
4bb
4gg
4aa
=
4bb
4aa
4gg
=
4.bb
8aa
4gg
=
4aa
4gg
4ff
=
[2.ee
=
4ee]
4ee
4ff
=||
4ff
[2ee
=
4ee]
2r
==
*-
